X: 206
T: A Glória Da Tua Presença
R: hornpipe
M: 4/4
K: Gmajor
[V:S]|z2 D3/2 C/|C2 B,2|z/ G G/ G/ F F E|E D D D C|A A G G F|
[V:C]|z2 B,3/2 G,/|G,2 G,2|z/ D D/ D/ D D C|C B, A, A, A,|E E E D D|
[V:T]|z2 G,3/2 E,/|E,2 D,2|z/ B, B,/ B,/ B, A, G,|G, G, F, F, E,|C C C B, A,|

